X: 313
T:Scarce O' Tatties
% Nottingham Music Database
S:MacLeod, via Phil Rowe
M:6/8
K:Am
"Am"Aee efg|"Em"edB dBG|"Am"Aee efg|"Em"edB "Am"A3|
"Am"aAA "G"gAA|"F#m"fAA "Em"eAA|"Am"Aee efg|"Em"edB "Am"A3::
"Am"aeg a2e|"Em"g2f "Am"eAA|"Am"aeg a2e|"Em"g2f e3|
"Am"eee A2A|"D"dff fee|"Am"Aee efg|"Em"edB "Am"A3:|


